X: 27804
T: Morrison's
R: jig
M: 6/8
K: Edorian
|:E3 B3|E3 AFD|EBE B2c|dcB AFD|
E3 B3|E3 AFD|GBG FGA|dAG FED:|
Bee fee|aee fed|Bee fee|fag fed|
Bee fee|aee fef|gfe d2A|BAG FED|
Bee fee|aee fed|Bee fee|faf def|
g3 gfe|def g2d|edc d2A|BAG FED|

